
surface background_node
  [[ string help = "Background emitter node" ]]
(
  color Cs = 0
    [[ string help = "Color of the background lighting" ]],

  float power = 1
    [[ string help = "Power of the emitted background light" ]],

  output closure color Cout = 0
)
{
  Cout = Cs * power * background();
}
